app/assets/images/heroicons/micro/tv.svg

<svg width="16" height="16" viewBox="0 0 16 16" fill="none" xmlns="http://www.w3.org/2000/svg">
<path d="M12 5H4V9H12V5Z" fill="black"/>
<path fill-rule="evenodd" clip-rule="evenodd" d="M1 3C1 2.44772 1.44772 2 2 2H14C14.5523 2 15 2.44772 15 3V11C15 11.5523 14.5523 12 14 12H10V13.5H12.25C12.6642 13.5 13 13.8358 13 14.25C13 14.6642 12.6642 15 12.25 15H3.75C3.33579 15 3 14.6642 3 14.25C3 13.8358 3.33579 13.5 3.75 13.5H6V12H2C1.44772 12 1 11.5523 1 11V3ZM2.5 10.5V3.5H13.5V10.5H2.5Z" fill="black"/>
</svg>

<svg xmlns="http://www.w3.org/2000/svg" viewBox="0 0 16 16" fill="currentColor" aria-hidden="true" data-slot="icon">
  <path d="M12 5H4v4h8V5Z"/>
  <path fill-rule="evenodd" d="M1 3a1 1 0 0 1 1-1h12a1 1 0 0 1 1 1v8a1 1 0 0 1-1 1h-4v1.5h2.25a.75.75 0 0 1 0 1.5h-8.5a.75.75 0 0 1 0-1.5H6V12H2a1 1 0 0 1-1-1V3Zm1.5 7.5v-7h11v7h-11Z" clip-rule="evenodd"/>
</svg>
